svg/furkot/foursquare.svg

<svg viewBox="0 0 512 512" xmlns="http://www.w3.org/2000/svg"><path d="m432.517 14.863c-9.076-13.544-26.793-15.046-41.646-14.846-89.51.403-179.053.171-268.604.101-5.138.158-10.269.428-15.332 1.418-16.432 2.731-29.952 16.534-32.838 32.833-2.637 16.07-1.118 32.469-1.32 48.674-.034 131.483.101 262.97-.1 394.453.37 8.11.664 16.961 5.693 23.796 7.928 10.831 23.989 13.534 35.71 7.708 7.064-3.847 12.294-10.111 17.557-16.004 38.466-45.409 78.46-89.533 116.85-135.019 4.24-4.81 9.209-10.076 16.241-9.68 27.691-1.42 55.449.93 83.176-.497 9.414-.493 19.22-3.183 26.047-10.034 9.303-9.142 12.193-22.427 15.14-34.653 15.734-76.268 29.983-152.855 45.776-229.12 3.712-19.247 9.213-41.474-2.35-59.13zm-69.07 123.532c-2.286 7.564-12.126 7.054-18.75 7.59-33.293.664-66.594-.801-99.853.16-10.171-.396-21.17 5.994-21.8 17.028-2.157 13.754-1.283 34.98 15.971 38.004 32.596 3.643 65.628-1.2 98.258 1.956 10.865.326 11.066 13.149 9.37 21.067-3.736 19.169-6.583 38.649-12.184 57.417-1.427 6.214-7.33 9.474-13.384 9.523-27.499 2.301-55.166-.95-82.657 1.007-11.271.161-17.987 10.271-24.653 17.86-27.726 34.084-55.62 68.008-84.244 101.341-1.125-107.234.102-214.51-.628-321.777.233-8.02-.171-16.399 2.776-24.023 4.218-8.876 15.311-8.649 23.663-9.114 65.294.07 130.62.238 195.92-.066 10.831.333 22.225-1.466 25.048 8.18 3.737 12.767-7.778 57.042-12.853 73.847z"/></svg>

<svg xmlns="http://www.w3.org/2000/svg" viewBox="0 0 512 512"><path d="M432.517 14.863C423.441 1.319 405.724-0.183 390.871 0.017 301.361 0.42 211.818 0.188 122.267 0.118 117.129 0.276 111.998 0.546 106.935 1.536 90.503 4.267 76.983 18.07 74.097 34.369 71.46 50.439 72.979 66.838 72.777 83.043 72.743 214.526 72.878 346.013 72.677 477.496 73.047 485.606 73.341 494.457 78.37 501.292 86.298 512.123 102.359 514.826 114.08 509 121.144 505.153 126.374 498.889 131.637 492.996 170.103 447.587 210.097 403.463 248.487 357.977 252.727 353.167 257.696 347.901 264.728 348.297 292.419 346.877 320.177 349.227 347.904 347.8 357.318 347.307 367.124 344.617 373.951 337.766 383.254 328.624 386.144 315.339 389.091 303.113 404.825 226.845 419.074 150.258 434.867 73.993 438.579 54.746 444.08 32.519 432.517 14.863ZM363.447 138.395C361.161 145.959 351.321 145.449 344.697 145.985 311.404 146.649 278.103 145.184 244.844 146.145 234.673 145.749 223.674 152.139 223.044 163.173 220.887 176.927 221.761 198.153 239.015 201.177 271.611 204.82 304.643 199.977 337.273 203.133 348.138 203.459 348.339 216.282 346.643 224.2 342.907 243.369 340.06 262.849 334.459 281.617 333.032 287.831 327.129 291.091 321.075 291.14 293.576 293.441 265.909 290.19 238.418 292.147 227.147 292.308 220.431 302.418 213.765 310.007 186.039 344.091 158.145 378.015 129.521 411.348 128.396 304.114 129.623 196.838 128.893 89.571 129.126 81.551 128.722 73.172 131.669 65.548 135.887 56.672 146.98 56.899 155.332 56.434 220.626 56.504 285.952 56.672 351.252 56.368 362.083 56.701 373.477 54.902 376.3 64.548 380.037 77.315 368.522 121.59 363.447 138.395Z"/></svg>
